timer-music-outline.svg

<svg fill="currentColor" viewBox="0 0 24 24"><path d="M15 3H9V1h6zm-4 11h2V8h-2zm2.05 5.91Q12.54 20 12 20c-3.87 0-7-3.13-7-7s3.13-7 7-7c3.17 0 5.85 2.11 6.71 5h2.06a9.05 9.05 0 0 0-1.74-3.61l1.42-1.42c-.45-.51-.9-.97-1.41-1.41L17.62 6c-1.55-1.26-3.5-2-5.62-2a9 9 0 0 0 0 18c.42 0 .83-.04 1.24-.09-.15-.45-.24-.91-.24-1.41 0-.2.03-.39.05-.59M18.5 13v5.21a2.5 2.5 0 1 0-1 4.79 2.5 2.5 0 0 0 2.5-2.5V15h2v-2z"/></svg>

<svg  viewBox="0 0 24 24" fill="currentColor"><path  d="M15 3H9V1H15V3M11 14H13V8H11V14M13.05 19.91C12.71 19.97 12.36 20 12 20C8.13 20 5 16.87 5 13S8.13 6 12 6C15.17 6 17.85 8.11 18.71 11H20.77C20.46 9.66 19.86 8.43 19.03 7.39L20.45 5.97C20 5.46 19.55 5 19.04 4.56L17.62 6C16.07 4.74 14.12 4 12 4C7.03 4 3 8.03 3 13S7.03 22 12 22C12.42 22 12.83 21.96 13.24 21.91C13.09 21.46 13 21 13 20.5C13 20.3 13.03 20.11 13.05 19.91M18.5 13V18.21C18.19 18.07 17.86 18 17.5 18C16.12 18 15 19.12 15 20.5S16.12 23 17.5 23 20 21.88 20 20.5V15H22V13H18.5Z"/></svg>
